src/icons/svg/password.svg

<?xml version="1.0" encoding="UTF-8"?>
<svg width="40px" height="46px" viewBox="0 0 40 46" version="1.1" xmlns="http://www.w3.org/2000/svg"
>
    <path d="M35.3176303,13.9329051 L32.8336902,13.9329051 L32.8336902,12.8479657 C32.8336902,5.76730906 27.0663812,0 19.9857245,0 C12.9050678,0 7.13775874,5.76730906 7.13775874,12.8479657 L7.13775874,13.904354 L4.6538187,13.904354 C2.08422555,13.9329051 0,15.9885796 0,18.5581727 L0,41.0278373 C0,43.5974304 2.08422555,45.681656 4.6538187,45.681656 L35.3461813,45.681656 C37.9157744,45.681656 40,43.5974304 40,41.0278373 L40,18.5581727 C39.971449,15.9885796 37.8872234,13.9329051 35.3176303,13.9329051 Z M9.99286224,12.8479657 C9.99286224,7.33761599 14.4753747,2.8551035 19.9857245,2.8551035 C25.4960742,2.8551035 29.9785867,7.33761599 29.9785867,12.8479657 L29.9785867,13.904354 L9.99286224,13.904354 L9.99286224,12.8479657 Z M37.1163455,41.0278373 C37.1163455,42.0271235 36.3169165,42.8265525 35.3176303,42.8265525 L4.6538187,42.8265525 C3.65453248,42.8265525 2.8551035,42.0271235 2.8551035,41.0278373 L2.8551035,18.5581727 C2.8551035,17.5588865 3.65453248,16.7594575 4.6538187,16.7594575 L35.3461813,16.7594575 C36.3169165,16.7880086 37.1163455,17.5874375 37.1163455,18.5581727 L37.1163455,41.0278373 Z"
          id="形状"></path>
    <path d="M19.9857245,24.2683797 C19.1862955,24.2683797 18.5581727,24.8965025 18.5581727,25.6959315 L18.5581727,31.4061385 C18.5581727,32.2055675 19.1862955,32.8336902 19.9857245,32.8336902 C20.7851535,32.8336902 21.4132762,32.2055675 21.4132762,31.4061385 L21.4132762,25.6959315 C21.4132762,24.8965025 20.7851535,24.2683797 19.9857245,24.2683797 Z"
          id="路径"></path>
</svg>

<svg width="40" height="46" xmlns="http://www.w3.org/2000/svg"><path d="M35.318 13.933h-2.484v-1.085C32.834 5.768 27.066 0 19.986 0 12.906 0 7.138 5.767 7.138 12.848v1.056H4.654C2.084 13.933 0 15.99 0 18.558v22.47a4.655 4.655 0 0 0 4.654 4.654h30.692A4.655 4.655 0 0 0 40 41.028v-22.47a4.673 4.673 0 0 0-4.682-4.625zM9.993 12.848c0-5.51 4.482-9.993 9.993-9.993 5.51 0 9.993 4.483 9.993 9.993v1.056H9.993v-1.056zm27.123 28.18c0 1-.8 1.799-1.798 1.799H4.654c-1 0-1.799-.8-1.799-1.8V18.559c0-1 .8-1.799 1.799-1.799h30.692c.97.029 1.77.828 1.77 1.8v22.469z"/><path d="M19.986 24.268c-.8 0-1.428.629-1.428 1.428v5.71c0 .8.628 1.428 1.428 1.428.8 0 1.427-.628 1.427-1.428v-5.71c0-.8-.628-1.428-1.427-1.428z"/></svg>
